X:1
T:Title
%%score { ( 1 3 ) | ( 2 4 ) }
L:1/8
Q:1/4=100
M:4/4
K:Bb
V:1 treble nm="Grand Piano"
V:3 treble 
V:2 bass 
V:4 bass 
V:1
 [DF]2 [DF]2 [B,D]3 [DF] | [Fd]2 [Fd]2 B2- [FB]2 | G2 B2 F2 [FB]2 | z4 c4 | %4
w: Chas.~H.~Gabriel * * *||||
 [DF]2 [DF]2 [B,D]3 [DF] | [Fd]2 [Fd]2 [FB]4 | [=EB]2 G2 c2 A2 | [FG]2 [=EG]2 F4 | A2 B2 c2 A2 | %9
w: |||||
 [DFB]3 [CEF] [B,DF]4 | [CA]2 [DB]2 [Ec]2 [FA]2 | [FB]2 [Fd]2 [Fc]4 | [Fd]3 [Fd] [Fd]2 B2 | %13
w: ||||
 [Ge]2 e2 z4 | G2 [FB]2 [Fc]2 [Fd]2 |[M:7/8] c3 B [DB]3 |[M:1/4] [DB]2 |[M:4/4] B3 A A2 c2 | %18
w: |||||
 [Ec]3 [DB] [DB]4 | d3 c BGAB | c8 | [Fd]2 [Ec]2 [DB]3 [B,FA] | [B,EG]2 [B,EB]2 [DF]4 | %23
w: |||||
 [B,EG]2 [B,FB]2 [Fc]2 [Fd]2 | c3 B [DB]4 |] %25
w: ||
V:2
 [B,,B,]2 [B,,B,]2 [B,,F,]3 [B,,B,] | [B,,B,]2 [B,,B,]2 [B,,F,]2 [D,B,]2 | %2
 [E,B,E]2 [G,B,E]2 [B,D]2 [D,B,]2 | z4 F2 z2 | [B,,B,]2 [B,,B,]2 [B,,F,]3 [B,,B,] | %5
 [B,,B,]2 [B,,B,]2 [D,B,]4 | [C,G,]2[K:treble] [B,C=E]2 [A,CF]2[K:bass] [F,CF]2 | %7
 [C,B,]2 [C,B,]2 [F,A,]4 | [F,CF]2 [F,DF]2 [F,EF]2 [F,EF]2 | B,,3 B,, B,,4 | %10
 F,2 F,2 [F,A,]2 [E,C]2 | [D,B,]2 [B,,B,]2 [F,A,]4 | [B,,B,]3 [B,,B,] [B,,B,]2 [B,D]2 | %13
 .[E,B,]2[K:treble] .[G,B,G]2 [B,F]4 | [E,B,E]2 [D,B,]2 [C,A,]2 [B,,B,]2 | %15
[M:7/8] [F,A,E]3 [F,D] [B,,F,]3 |[M:1/4] [B,,B,]2 |[M:4/4] [F,CE]3 [F,CE] [F,CE]2 [F,A,E]2 | %18
 [B,,B,]3 [B,,B,] [B,,B,]4 | z4 [C=E]2 [CE]2[K:bass] | [F,A,F]2 [G,B,]2 [F,A,]4 | %21
 [B,,B,]2 [B,,F,]2 [B,,F,]3 D, | E,F,G,A, B,4 | E,2 D,2 [C,A,]2 [B,,B,]2 | %24
 [F,A,E]3 [F,D] [B,,F,]4 |] %25
V:3
 x8 | z4 D2 z2 | x8 | [Fc]2 [Fd]2 z2 E2 | x8 | x8 | x8 | x8 | x8 | x8 | x8 | x8 | x8 | %13
 z F, z A, d4 | x8 |[M:7/8] x7 |[M:1/4] x2 |[M:4/4] x8 | x8 | x8 | z2 =E2 _E4 | x8 | x8 | x8 | %24
 x8 |] %25
V:4
 x8 | x8 | x8 | [C,A,]2 [B,,B,]2 [F,A,]4 | x8 | x8 | x2[K:treble] x4[K:bass] x2 | x8 | x8 | x8 | %10
 x8 | x8 | x8 | x2[K:treble] x6 | x8 |[M:7/8] x7 |[M:1/4] x2 |[M:4/4] x8 | x8 | %19
 [B,F]3 [A,CF] G,B,A,[K:bass]G, | x8 | x8 | x8 | x8 | x8 |] %25

